X: 27542
T: Monaghan, The
R: jig
M: 6/8
K: Eminor
EGB eBG|BGE FAF|EGB eBG|F3 AFD|
EGB GBe|Beg efg|d3 A2G|FDF AGF|

